X:101
T:The Rising Sun
R:Reel
S:Maire O'Keeffe, Kerry (fiddle)
D:Session tape - Milltown Malbay 1991
Z:Bernie Stocks
M:4/4
K:D
~d3B A2FA | ~f3d edBA | FAdB AFDF | EDEF D2FA :| d2fd Adfd | (3efgfd edBA |
d2fd Adfd | egfe d2AB | d2fd Adfd | (3efgfd edBA | defg ~a3a | {b}afeg fdeB ||
<end>
<start>
